src/theme/img/info.svg

<svg width="24" height="24" viewBox="0 0 24 24" xmlns="http://www.w3.org/2000/svg">
  <path d="M12 0C5.37304839 0 0 5.37498387 0 12c0 6.6288871 5.37304839 12 12 12 6.6269516 0 12-5.3711129 12-12 0-6.62501613-5.3730484-12-12-12Zm0 5.32258065c1.1223871 0 2.0322581.90987096 2.0322581 2.03225806S13.1223871 9.38709677 12 9.38709677s-2.03225806-.90987096-2.03225806-2.03225806S10.8776129 5.32258065 12 5.32258065Zm2.7096774 12.29032255c0 .3206613-.2599839.5806452-.5806451.5806452H9.87096774c-.32066129 0-.58064516-.2599839-.58064516-.5806452v-1.1612903c0-.3206613.25998387-.5806452.58064516-.5806452h.58064516v-3.0967742h-.58064516c-.32066129 0-.58064516-.2599838-.58064516-.5806451v-1.1612903c0-.3206613.25998387-.5806452.58064516-.5806452h3.09677416c.3206613 0 .5806452.2599839.5806452.5806452v4.8387096h.5806452c.3206612 0 .5806451.2599839.5806451.5806452v1.1612903Z" fill="currentColor" fill-rule="nonzero"/>
</svg>

<?xml version="1.0" encoding="UTF-8"?>
<svg width="24px" height="24px" viewBox="0 0 24 24" version="1.1" xmlns="http://www.w3.org/2000/svg" xmlns:xlink="http://www.w3.org/1999/xlink">
    <g id="Squat-laskuri" stroke="none" stroke-width="1" fill="none" fill-rule="evenodd">
        <g id="colors_and_typography" transform="translate(-1254.000000, -960.000000)" fill="currentColor" fill-rule="nonzero">
            <g id="info-circle-solid" transform="translate(1254.000000, 960.000000)">
                <path d="M12,0 C5.37304839,0 0,5.37498387 0,12 C0,18.6288871 5.37304839,24 12,24 C18.6269516,24 24,18.6288871 24,12 C24,5.37498387 18.6269516,0 12,0 Z M12,5.32258065 C13.1223871,5.32258065 14.0322581,6.23245161 14.0322581,7.35483871 C14.0322581,8.47722581 13.1223871,9.38709677 12,9.38709677 C10.8776129,9.38709677 9.96774194,8.47722581 9.96774194,7.35483871 C9.96774194,6.23245161 10.8776129,5.32258065 12,5.32258065 Z M14.7096774,17.6129032 C14.7096774,17.9335645 14.4496935,18.1935484 14.1290323,18.1935484 L9.87096774,18.1935484 C9.55030645,18.1935484 9.29032258,17.9335645 9.29032258,17.6129032 L9.29032258,16.4516129 C9.29032258,16.1309516 9.55030645,15.8709677 9.87096774,15.8709677 L10.4516129,15.8709677 L10.4516129,12.7741935 L9.87096774,12.7741935 C9.55030645,12.7741935 9.29032258,12.5142097 9.29032258,12.1935484 L9.29032258,11.0322581 C9.29032258,10.7115968 9.55030645,10.4516129 9.87096774,10.4516129 L12.9677419,10.4516129 C13.2884032,10.4516129 13.5483871,10.7115968 13.5483871,11.0322581 L13.5483871,15.8709677 L14.1290323,15.8709677 C14.4496935,15.8709677 14.7096774,16.1309516 14.7096774,16.4516129 L14.7096774,17.6129032 Z" id="Shape"></path>
            </g>
        </g>
    </g>
</svg>
